src/pos-icons/patreon.svg

<svg height="24" viewBox="0 0 24 24" width="24" xmlns="http://www.w3.org/2000/svg"><path d="m14.82 2.41c3.96 0 7.18 3.24 7.18 7.21 0 3.96-3.22 7.18-7.18 7.18-3.97 0-7.21-3.22-7.21-7.18 0-3.97 3.24-7.21 7.21-7.21m-12.82 19.19h3.5v-19.19h-3.5z"/></svg>

<?xml version="1.0" encoding="UTF-8"?><!DOCTYPE svg PUBLIC "-//W3C//DTD SVG 1.1//EN" "http://www.w3.org/Graphics/SVG/1.1/DTD/svg11.dtd"><svg xmlns="http://www.w3.org/2000/svg" xmlns:xlink="http://www.w3.org/1999/xlink" version="1.1" id="mdi-patreon" width="24" height="24" viewBox="0 0 24 24"><path d="M14.82 2.41C18.78 2.41 22 5.65 22 9.62C22 13.58 18.78 16.8 14.82 16.8C10.85 16.8 7.61 13.58 7.61 9.62C7.61 5.65 10.85 2.41 14.82 2.41M2 21.6H5.5V2.41H2V21.6Z" /></svg>
